client/src/imgs/waves1.svg

<svg width="960" height="540" xmlns="http://www.w3.org/2000/svg"><path fill="#fff" d="M0 0h960v540H0z"/><path d="m0 412 10-6.2c10-6.1 30-18.5 50-22.1 20-3.7 40 1.3 60-2.4 20-3.6 40-16 60-16.5s40 10.9 60 22.5c20 11.7 40 23.7 60 29.2s40 4.5 60 4 40-.5 60-6.8c20-6.4 40-19 60-23.5s40-.9 60 5c20 5.8 40 13.8 60 13.6 20-.1 40-8.5 60-14.5s40-9.6 60-8c20 1.7 40 8.7 60 15.2s40 12.5 60 13.2c20 .6 40-4 60-8.9 20-4.8 40-9.8 50-12.3l10-2.5v150H0Z" fill="#ff79fd"/><path d="m0 421 10-3.2c10-3.1 30-9.5 50-15s40-10.1 60-4.5c20 5.7 40 21.7 60 24.5 20 2.9 40-7.5 60-11.3 20-3.8 40-1.2 60 3.8s40 12.4 60 8.5c20-3.8 40-18.8 60-20.1 20-1.4 40 11 60 14.5s40-1.9 60-3c20-1.2 40 1.8 60-3.9 20-5.6 40-20 60-20.8 20-.8 40 11.8 60 22.7 20 10.8 40 19.8 60 19.5 20-.4 40-10 60-18.9 20-8.8 40-16.8 60-23.1 20-6.4 40-11 50-13.4l10-2.3v166H0Z" fill="#ef74fe"/><path d="m0 434 10-4.8c10-4.9 30-14.5 50-10.9 20 3.7 40 20.7 60 27.4 20 6.6 40 3 60 .8s40-2.8 60-5.7c20-2.8 40-7.8 60-11.8 20-4 40-7 60-5.5s40 7.5 60 6.5 40-9 60-5.2c20 3.9 40 19.5 60 26.5s40 5.4 60 .9 40-11.9 60-20c20-8.2 40-17.2 60-14 20 3.1 40 18.5 60 18.3 20-.2 40-15.8 60-14.5 20 1.3 40 19.7 60 24.5 20 4.8 40-3.8 50-8.2l10-4.3v107H0Z" fill="#de6ffe"/><path d="m0 464 10-1.8c10-1.9 30-5.5 50-11.9 20-6.3 40-15.3 60-14.1 20 1.1 40 12.5 60 20.5s40 12.6 60 8.3c20-4.3 40-17.7 60-21.8 20-4.2 40 .8 60 1 20 .1 40-4.5 60-1.2s40 14.7 60 21c20 6.3 40 7.7 60 9.3 20 1.7 40 3.7 60-2.8s40-21.5 60-28.8c20-7.4 40-7 60-3.2s40 11.2 60 13.8c20 2.7 40 .7 60-3 20-3.6 40-9 60-10.3 20-1.3 40 1.3 50 2.7l10 1.3v98H0Z" fill="#cb6bff"/><path d="m0 454 10 6.7c10 6.6 30 20 50 23s40-4.4 60-7.5c20-3.2 40-2.2 60-5.2s40-10 60-9 40 10 60 10.3c20 .4 40-8 60-12s40-3.6 60 .9 40 13.1 60 17.5c20 4.3 40 4.3 60 5 20 .6 40 2 60 1.1 20-.8 40-3.8 60-2.8s40 6 60 8.8c20 2.9 40 3.5 60 3.7 20 .2 40-.2 60-6.5s40-18.7 60-20.2 40 7.9 50 12.5l10 4.7v56H0Z" fill="#b767ff"/><path d="m0 497 10-3c10-3 30-9 50-11.8 20-2.9 40-2.5 60-3.2 20-.7 40-2.3 60 1s40 11.7 60 14.2 40-.9 60-.4 40 4.9 60 4.4 40-5.9 60-9.4 40-5.1 60-6.5c20-1.3 40-2.3 60-1.8 20 .5 40 2.5 60 6s40 8.5 60 9.7c20 1.1 40-1.5 60-3s40-1.9 60-3.2c20-1.3 40-3.7 60-6.7s40-6.6 60-7.1 40 2.1 50 3.5l10 1.3v60H0Z" fill="#a164ff"/><path d="m0 503 10-.8c10-.9 30-2.5 50 .8s40 11.7 60 14c20 2.3 40-1.3 60-4s40-4.3 60-5.3 40-1.4 60-1.7c20-.3 40-.7 60 2.5s40 9.8 60 10.2c20 .3 40-5.7 60-6.5 20-.9 40 3.5 60 4.3 20 .8 40-1.8 60-2.7 20-.8 40 .2 60 2 20 1.9 40 4.5 60 6.7s40 3.8 60 2.5c20-1.3 40-5.7 60-7.7s40-1.6 60-.8 40 2.2 50 2.8l10 .7v21H0Z" fill="#8961ff"/></svg>

<svg id="visual" viewBox="0 0 960 540" width="960" height="540" xmlns="http://www.w3.org/2000/svg" xmlns:xlink="http://www.w3.org/1999/xlink" version="1.1"><rect x="0" y="0" width="960" height="540" fill="#fff"></rect><path d="M0 412L10 405.8C20 399.7 40 387.3 60 383.7C80 380 100 385 120 381.3C140 377.7 160 365.3 180 364.8C200 364.3 220 375.7 240 387.3C260 399 280 411 300 416.5C320 422 340 421 360 420.5C380 420 400 420 420 413.7C440 407.3 460 394.7 480 390.2C500 385.7 520 389.3 540 395.2C560 401 580 409 600 408.8C620 408.7 640 400.3 660 394.3C680 388.3 700 384.7 720 386.3C740 388 760 395 780 401.5C800 408 820 414 840 414.7C860 415.3 880 410.7 900 405.8C920 401 940 396 950 393.5L960 391L960 541L950 541C940 541 920 541 900 541C880 541 860 541 840 541C820 541 800 541 780 541C760 541 740 541 720 541C700 541 680 541 660 541C640 541 620 541 600 541C580 541 560 541 540 541C520 541 500 541 480 541C460 541 440 541 420 541C400 541 380 541 360 541C340 541 320 541 300 541C280 541 260 541 240 541C220 541 200 541 180 541C160 541 140 541 120 541C100 541 80 541 60 541C40 541 20 541 10 541L0 541Z" fill="#ff79fd"></path><path d="M0 421L10 417.8C20 414.7 40 408.3 60 402.8C80 397.3 100 392.7 120 398.3C140 404 160 420 180 422.8C200 425.7 220 415.3 240 411.5C260 407.7 280 410.3 300 415.3C320 420.3 340 427.7 360 423.8C380 420 400 405 420 403.7C440 402.3 460 414.7 480 418.2C500 421.7 520 416.3 540 415.2C560 414 580 417 600 411.3C620 405.7 640 391.3 660 390.5C680 389.7 700 402.3 720 413.2C740 424 760 433 780 432.7C800 432.3 820 422.7 840 413.8C860 405 880 397 900 390.7C920 384.3 940 379.7 950 377.3L960 375L960 541L950 541C940 541 920 541 900 541C880 541 860 541 840 541C820 541 800 541 780 541C760 541 740 541 720 541C700 541 680 541 660 541C640 541 620 541 600 541C580 541 560 541 540 541C520 541 500 541 480 541C460 541 440 541 420 541C400 541 380 541 360 541C340 541 320 541 300 541C280 541 260 541 240 541C220 541 200 541 180 541C160 541 140 541 120 541C100 541 80 541 60 541C40 541 20 541 10 541L0 541Z" fill="#ef74fe"></path><path d="M0 434L10 429.2C20 424.3 40 414.7 60 418.3C80 422 100 439 120 445.7C140 452.3 160 448.7 180 446.5C200 444.3 220 443.7 240 440.8C260 438 280 433 300 429C320 425 340 422 360 423.5C380 425 400 431 420 430C440 429 460 421 480 424.8C500 428.7 520 444.3 540 451.3C560 458.3 580 456.7 600 452.2C620 447.7 640 440.3 660 432.2C680 424 700 415 720 418.2C740 421.3 760 436.7 780 436.5C800 436.3 820 420.7 840 422C860 423.3 880 441.7 900 446.5C920 451.3 940 442.7 950 438.3L960 434L960 541L950 541C940 541 920 541 900 541C880 541 860 541 840 541C820 541 800 541 780 541C760 541 740 541 720 541C700 541 680 541 660 541C640 541 620 541 600 541C580 541 560 541 540 541C520 541 500 541 480 541C460 541 440 541 420 541C400 541 380 541 360 541C340 541 320 541 300 541C280 541 260 541 240 541C220 541 200 541 180 541C160 541 140 541 120 541C100 541 80 541 60 541C40 541 20 541 10 541L0 541Z" fill="#de6ffe"></path><path d="M0 464L10 462.2C20 460.3 40 456.7 60 450.3C80 444 100 435 120 436.2C140 437.3 160 448.7 180 456.7C200 464.7 220 469.3 240 465C260 460.7 280 447.3 300 443.2C320 439 340 444 360 444.2C380 444.3 400 439.7 420 443C440 446.3 460 457.7 480 464C500 470.3 520 471.7 540 473.3C560 475 580 477 600 470.5C620 464 640 449 660 441.7C680 434.3 700 434.7 720 438.5C740 442.3 760 449.7 780 452.3C800 455 820 453 840 449.3C860 445.7 880 440.3 900 439C920 437.7 940 440.3 950 441.7L960 443L960 541L950 541C940 541 920 541 900 541C880 541 860 541 840 541C820 541 800 541 780 541C760 541 740 541 720 541C700 541 680 541 660 541C640 541 620 541 600 541C580 541 560 541 540 541C520 541 500 541 480 541C460 541 440 541 420 541C400 541 380 541 360 541C340 541 320 541 300 541C280 541 260 541 240 541C220 541 200 541 180 541C160 541 140 541 120 541C100 541 80 541 60 541C40 541 20 541 10 541L0 541Z" fill="#cb6bff"></path><path d="M0 454L10 460.7C20 467.3 40 480.7 60 483.7C80 486.7 100 479.3 120 476.2C140 473 160 474 180 471C200 468 220 461 240 462C260 463 280 472 300 472.3C320 472.7 340 464.3 360 460.3C380 456.3 400 456.7 420 461.2C440 465.7 460 474.3 480 478.7C500 483 520 483 540 483.7C560 484.3 580 485.7 600 484.8C620 484 640 481 660 482C680 483 700 488 720 490.8C740 493.7 760 494.3 780 494.5C800 494.7 820 494.3 840 488C860 481.7 880 469.3 900 467.8C920 466.3 940 475.7 950 480.3L960 485L960 541L950 541C940 541 920 541 900 541C880 541 860 541 840 541C820 541 800 541 780 541C760 541 740 541 720 541C700 541 680 541 660 541C640 541 620 541 600 541C580 541 560 541 540 541C520 541 500 541 480 541C460 541 440 541 420 541C400 541 380 541 360 541C340 541 320 541 300 541C280 541 260 541 240 541C220 541 200 541 180 541C160 541 140 541 120 541C100 541 80 541 60 541C40 541 20 541 10 541L0 541Z" fill="#b767ff"></path><path d="M0 497L10 494C20 491 40 485 60 482.2C80 479.3 100 479.7 120 479C140 478.3 160 476.7 180 480C200 483.3 220 491.7 240 494.2C260 496.7 280 493.3 300 493.8C320 494.3 340 498.7 360 498.2C380 497.7 400 492.3 420 488.8C440 485.3 460 483.7 480 482.3C500 481 520 480 540 480.5C560 481 580 483 600 486.5C620 490 640 495 660 496.2C680 497.3 700 494.7 720 493.2C740 491.7 760 491.3 780 490C800 488.7 820 486.3 840 483.3C860 480.3 880 476.7 900 476.2C920 475.7 940 478.3 950 479.7L960 481L960 541L950 541C940 541 920 541 900 541C880 541 860 541 840 541C820 541 800 541 780 541C760 541 740 541 720 541C700 541 680 541 660 541C640 541 620 541 600 541C580 541 560 541 540 541C520 541 500 541 480 541C460 541 440 541 420 541C400 541 380 541 360 541C340 541 320 541 300 541C280 541 260 541 240 541C220 541 200 541 180 541C160 541 140 541 120 541C100 541 80 541 60 541C40 541 20 541 10 541L0 541Z" fill="#a164ff"></path><path d="M0 503L10 502.2C20 501.3 40 499.7 60 503C80 506.3 100 514.7 120 517C140 519.3 160 515.7 180 513C200 510.3 220 508.7 240 507.7C260 506.7 280 506.3 300 506C320 505.7 340 505.3 360 508.5C380 511.7 400 518.3 420 518.7C440 519 460 513 480 512.2C500 511.3 520 515.7 540 516.5C560 517.3 580 514.7 600 513.8C620 513 640 514 660 515.8C680 517.7 700 520.3 720 522.5C740 524.7 760 526.3 780 525C800 523.7 820 519.3 840 517.3C860 515.3 880 515.7 900 516.5C920 517.3 940 518.7 950 519.3L960 520L960 541L950 541C940 541 920 541 900 541C880 541 860 541 840 541C820 541 800 541 780 541C760 541 740 541 720 541C700 541 680 541 660 541C640 541 620 541 600 541C580 541 560 541 540 541C520 541 500 541 480 541C460 541 440 541 420 541C400 541 380 541 360 541C340 541 320 541 300 541C280 541 260 541 240 541C220 541 200 541 180 541C160 541 140 541 120 541C100 541 80 541 60 541C40 541 20 541 10 541L0 541Z" fill="#8961ff"></path></svg>
